X:3510
T:Cows are a-Milking
T:The Mistress
T:Woman of the House
R:reel
S:Session in Miltown Malbay 1991
D:Mary Bergin: Feadoga Stain 2
Z:id:hn-reel-317
M:C|
L:1/8
Q:1/4=200
K:G
|:DGBG cABA|GBdg egdB|GABG A2Bd|eA~A2 eABA|
GABG cABA|GBdg  (3ege dB|GABG A2GA|BGdc BGG2:|
|:gfeg fed2|efge dcBA|GABG A2Bd|eA~A2 eABA|
gfeg fed2|(3efg fe dcBA|~G3B ~A3c|BGdc BGG2:|


